Catalina-light/actions/16/font-select-symbolic.svg

<?xml version="1.0" encoding="UTF-8" standalone="no"?>
<svg
   xmlns:dc="http://purl.org/dc/elements/1.1/"
   xmlns:cc="http://creativecommons.org/ns#"
   xmlns:rdf="http://www.w3.org/1999/02/22-rdf-syntax-ns#"
   xmlns:svg="http://www.w3.org/2000/svg"
   xmlns="http://www.w3.org/2000/svg"
   xmlns:sodipodi="http://sodipodi.sourceforge.net/DTD/sodipodi-0.dtd"
   xmlns:inkscape="http://www.inkscape.org/namespaces/inkscape"
   viewBox="0 0 16 16"
   id="svg2"
   version="1.1"
   inkscape:version="0.91 r13725"
   sodipodi:docname="font-select-symbolic.svg">
  <metadata
     id="metadata10">
    <rdf:RDF>
      <cc:Work
         rdf:about="">
        <dc:format>image/svg+xml</dc:format>
        <dc:type
           rdf:resource="http://purl.org/dc/dcmitype/StillImage" />
      </cc:Work>
    </rdf:RDF>
  </metadata>
  <sodipodi:namedview
     pagecolor="#ffffff"
     bordercolor="#666666"
     borderopacity="1"
     objecttolerance="10"
     gridtolerance="10"
     guidetolerance="10"
     inkscape:pageopacity="0"
     inkscape:pageshadow="2"
     inkscape:window-width="640"
     inkscape:window-height="480"
     id="namedview8"
     showgrid="false"
     inkscape:zoom="39.8125"
     inkscape:cx="5.0863422"
     inkscape:cy="8"
     inkscape:current-layer="svg2" />
  <defs
     id="defs3051">
    <style
       type="text/css"
       id="current-color-scheme">
      .ColorScheme-Text {
        color:#bebebe;
      }
      </style>
  </defs>
  <path
     style="color:#bebebe;fill:currentColor;fill-opacity:1;stroke:none"
     class="ColorScheme-Text"
     d="m 6.5000002,5 0,1.4941634 2.1796875,0 c -0.0414,0 0.070312,0.1277786 0.070312,0.070038 l 0,0.7003891 -0.75,0 c -1.2869101,0 -2.2784026,0.8291562 -2.296875,1.8443581 -0.00923,0.5076013 0.2396255,1.0109744 0.6562505,1.3540874 C 6.7760001,10.806146 7.3415677,11 8.0000002,11 l 1.5,0 0.7499998,0 0,-0.747082 0,-3.6887157 C 10.25,5.6969959 9.5886577,5.0119466 8.7031252,5 L 8.6796872,5 6.4999997,5 Z M 2,6.4941634 2,10.976653 5.0000001,8.7354086 2,6.4941634 Z m 12,0 -3,2.2412452 3,2.2412444 0,-4.4824896 z m -5.9999998,2.2645915 0.75,0 0,0.7470817 -0.75,0 c -0.3895575,0 -0.5850825,-0.1088603 -0.6796875,-0.1867705 C 7.2257077,9.241156 7.2021502,9.1860579 7.2031252,9.1322957 7.2053751,9.0247719 7.2726502,8.7587549 8.0000002,8.7587549 Z"
     id="path6"
     inkscape:connector-curvature="0" />
</svg>

<svg version="1.1" viewBox="0 0 16 16" xmlns="http://www.w3.org/2000/svg">
<defs>
<style id="current-color-scheme" type="text/css">.ColorScheme-Text {
        color:#bebebe;
      }</style>
</defs>
<path class="ColorScheme-Text" d="m6.5 5v1.4942h2.1797c-0.0414 0 0.070312 0.12778 0.070312 0.070038v0.70039h-0.75c-1.2869 0-2.2784 0.82916-2.2969 1.8444-0.00923 0.5076 0.23963 1.011 0.65625 1.3541 0.41662 0.34311 0.98219 0.53696 1.6406 0.53696h1.5 0.75v-0.74708-3.6887c0-0.86721-0.66134-1.5523-1.5469-1.5642h-0.023438-2.1797zm-4.5 1.4942v4.4825l3-2.2412-3-2.2412zm12 0-3 2.2412 3 2.2412v-4.4825zm-6 2.2646h0.75v0.74708h-0.75c-0.38956 0-0.58508-0.10886-0.67969-0.18677-0.094605-0.07791-0.11816-0.13301-0.11719-0.18677 0.0022499-0.10752 0.069525-0.37354 0.79688-0.37354z" color="#bebebe" fill="currentColor"/>
</svg>
